X: 155
T: No_237_Drinking_Song_(a).krn
N: Derived from No_237_Drinking_Song_(a).krn
%%abc-version 2.0
%%abcx-abcm2ps-target-version 5.9.1 (29 Sep 2008)
%%abc-creator hum2abc beta
%%abcx-conversion-date 2019/03/15 08:38:45
%%humdrum-veritas 2202423939
%%humdrum-veritas-data 2968814295
%%linebreak <none>
%%barnumbers 0
L: 1/8
M: 2/4
K: Eb clef=treble
[K:clef=treble][M:2/4]z2E/E3/ ]|:  
G2G(3:2:2F/E | 
E4 | 
F/E3/ F/E3/ ||  
[M:3/4](3GFEF2E2 ||  
[M:2/4]C2z3/ E/ ||  
[M:5/8]E3/E/E3/E/E ||  
[M:2/4]G2FE | 
E2E2 ||  
[M:3/4]F/E3/F2(3GFE ||  
[M:2/4]F/=E3/_E2 | 
C2z2 ||  
[M:3/4]E/C3/E2E/E3/ ||  
[M:2/4]G2(3FEE | 
E2z2 | 
(F/E3/)F2 ||  
[M:3/4]GGF2(E3/C/) ||  
[M:2/4]C2z2 | 
E/E3/E2 | 
(FE) CC | 
E3z | 
[M:3/4]E/E3/ E/E3/E2 :|]  



